src/assets/metronic/worbby/global/img/social-youtube-sunglow.svg

<?xml version="1.0" encoding="UTF-8"?>
<svg width="40px" height="40px" viewBox="0 0 40 40" version="1.1" xmlns="http://www.w3.org/2000/svg" xmlns:xlink="http://www.w3.org/1999/xlink" enable-background="new 0 0 40 40">
    <defs></defs>
	<circle id="circle" fill="none" stroke="#FFCB33" cx="20" cy="20" r="19.5"/>
    <g id="Desktop" stroke="none" stroke-width="1" fill="none" fill-rule="evenodd">
        <g id="How-it-works-for-Worbbior" transform="translate(-480.000000, -4920.000000)">
            <g id="Desktop-Footer" transform="translate(0.000000, 4890.000000)">
                <g id="social-youtube-white" transform="translate(480.000000, 30.000000)">
                    <path d="M0.5,20 C0.5,9.22959913 9.22886691,0.5 20,0.5 C30.7704009,0.5 39.5,9.22886691 39.5,20 C39.5,30.7704009 30.7711331,39.5 20,39.5 C9.22959913,39.5 0.5,30.7711331 0.5,20 Z" 
						id="Rectangle-4-Copy-5" 
						stroke="#FFCB33">
					</path>
                    <path d="M17.9352371,22.5818981 L17.9343168,16.9890928 L23.3384046,19.795239 L17.9352371,22.5818981 Z M29.8002837,16.0202123 C29.8002837,16.0202123 29.6048359,14.648533 29.0051975,14.0444905 C28.2446701,13.2516762 27.3921948,13.2477593 27.00126,13.201341 C24.2025495,13 20.004337,13 20.004337,13 L19.9956434,13 C19.9956434,13 15.7975288,13 12.9987204,13.201341 C12.607766,13.2477593 11.755604,13.2516762 10.9948025,14.0444905 C10.3951445,14.648533 10.20001,16.0202123 10.20001,16.0202123 C10.20001,16.0202123 10,17.6309987 10,19.2418046 L10,20.7519205 C10,22.3626874 10.20001,23.9734738 10.20001,23.9734738 C10.20001,23.9734738 10.3951445,25.3451727 10.9948025,25.9492152 C11.755604,26.7420099 12.7549687,26.7169495 13.2000815,26.8000426 C14.8001026,26.9527437 20.0000098,27 20.0000098,27 C20.0000098,27 24.2025495,26.9937057 27.00126,26.7923452 C27.3921948,26.7459463 28.2446701,26.7420099 29.0051975,25.9492152 C29.6048359,25.3451727 29.8002837,23.9734738 29.8002837,23.9734738 C29.8002837,23.9734738 30,22.3626874 30,20.7519205 L30,19.2418046 C30,17.6309987 29.8002837,16.0202123 29.8002837,16.0202123 L29.8002837,16.0202123 Z" 
						id="icon-social-youtube" 
						fill="#FFCB33">
					</path>
                </g>
            </g>
        </g>
    </g>
</svg>

<svg xmlns="http://www.w3.org/2000/svg" width="40" height="40"><circle cx="20" cy="20" r="19.5" fill="none" stroke="#FFCB33"/><g fill="none" fill-rule="evenodd"><path stroke="#FFCB33" d="M.5 20C.5 9.2296 9.229.5 20 .5 30.7704.5 39.5 9.229 39.5 20c0 10.7704-8.729 19.5-19.5 19.5C9.2296 39.5.5 30.771.5 20z"/><path fill="#FFCB33" d="M17.9352 22.582l-.001-5.593 5.4042 2.8062-5.4032 2.7867zm11.865-6.5618s-.1954-1.3717-.795-1.9757c-.7605-.7928-1.613-.7967-2.004-.8432C24.2026 13 20.0043 13 20.0043 13h-.0086s-4.198 0-6.997.2013c-.3908.0465-1.243.0504-2.0038.8432-.5997.604-.7948 1.9757-.7948 1.9757s-.2 1.6108-.2 3.2216v1.51c0 1.611.2 3.2217.2 3.2217s.195 1.3717.7948 1.9757c.7608.7928 1.7602.7677 2.2053.8508 1.6.1527 6.8.2 6.8.2s4.2025-.0063 7.0013-.2077c.391-.0464 1.2434-.0503 2.004-.843.5995-.604.795-1.9758.795-1.9758S30 22.3627 30 20.752v-1.5102c0-1.6108-.1997-3.2216-.1997-3.2216z"/></g></svg>
